images/icons/messages.svg

<svg width="48" height="48" viewBox="0 0 48 48" fill="none" xmlns="http://www.w3.org/2000/svg">
<path d="M12 28.05H27.65V25.05H12V28.05ZM12 21.55H36V18.55H12V21.55ZM12 15.05H36V12.05H12V15.05ZM4 44V7C4 6.23333 4.3 5.54167 4.9 4.925C5.5 4.30833 6.2 4 7 4H41C41.7667 4 42.4583 4.30833 43.075 4.925C43.6917 5.54167 44 6.23333 44 7V33C44 33.7667 43.6917 34.4583 43.075 35.075C42.4583 35.6917 41.7667 36 41 36H12L4 44Z" fill="#CDCDCD"/>
</svg>

<svg xmlns="http://www.w3.org/2000/svg" height="48" width="48"><path d="M12 28.05h15.65v-3H12Zm0-6.5h24v-3H12Zm0-6.5h24v-3H12ZM4 44V7q0-1.15.9-2.075Q5.8 4 7 4h34q1.15 0 2.075.925Q44 5.85 44 7v26q0 1.15-.925 2.075Q42.15 36 41 36H12Z"/></svg>
